!!!SOCIAL_FUNCTION:	songs in honor of an individual
!!!PDT:	1918

Specific Region: Dakotas, Minnesota, Montana, Nebraska
!!!REG: Dakotas and Montana
!!!LING_GROUP: Siouan
!!!LANG: Tone
!!!OTL@ENG: Two White Buffalo
!!!ONM: No. 222
**kern
*Imale
*clefG2
*M3/4
*MM60
-2147483648B
8a
8a
8a
8b
12b
12a
12a
=2
2e
4e
=3
8e
8a
16a
8.e
8d
8d
=4
16c
8.d
8d
8e
16e
8.d
=5
8c
8c
16c
8.B
8B
8B
=6
2.B
=7||
*M2/4
16B
8.d
8d
8e
=8
16e
8.d
8c
8c
=9||
*M3/4
16B
8.c
8c
8d
16d
8.c
=10||
*M2/4
16c
8.B
8B
8B
=11
2B
=12||
*M3/4
2.B
=13
16B
8.e
16e
8.e
8e
8a
=14
16a
16e
8e
16d
8.d
8d
8d
=15
16c
8.d
16d
8.d
8d
8e
=16||
*M2/4
16e
8.d
8c
8c
=17
16c
8.B
8B
8B
=18||
*M3/4
2.c
=19||
*M2/4
16B
8.d
8d
8e
=20
16e
8.d
8c
8c
=21||
*M3/4
16B
8.c
16c
8.c
8c
8d
=22
16d
8.c
16c
8.B
8B
8B
=23
2.B
=24
2.B
==
*-
!!!CNT: Native American -- Sioux
!!!MRD: 1911/07//-1914///
!!!OCL: Frances Densmore
!!!YOR1: Teton Sioux Music, Bulletin 61,
!!!YOR2: Bureau of American Ethnology, Smithsonian Institution
!!!PPR: Government Printing Office
!!!PPP: Washington, D.C.
!!!PDT: 1918///
!!!ENC: Craig Stuart Sapp
!!!END: 2002/03/25/
!!!EEV: 2002/03/31/
!!!AGN: Song in Honor of an Individual
!!!MPN@@SIO: Toke'ya-wicha'o
!!!MPN@ENG: Shoots First
!!!TXO: Teton Sioux
!!!MLC: Standing Rock Reservation, South Dakota, United States of America
!!!ARL: 45.9/-100.7#
!!!catalog: Catalogue No. 642
!!!PPG: 500
!!!EFL: 227/245
!!!VTS: 4119874233
